X: 631
T: Adagio
R: waltz
M: 3/4
K: Eminor
d6|d6|g4 d2|eg c4|B4 z2|
d6|d6|g4 d2|eg c4|B4e2|eaaf d2|
dggd e/^c/d/e/|fd ge/^c/ ad|B/g/f/e/ f2 e2|d4 d2|
dg/e/ c4|c/A/f/d/ B4|Be/c/ A4|A/F/d/B/ G4|Gc/A/ FF/A/ f2|
fB/G/ EG/B/ e2|ec BA/G/ F2|E2 G2 BA/B/|c6|c2 F2 AG/A/|
B6|B2 GE e2|^A3A B2|Bg ^c4|B4 z2|z6|
d6|d6|g4 d2|eg c4|B4e2|eaaf d2|
dgge ec|c3A B2|Bc B2 A2|G4 e2|eaaf d2|
dgge ec|c3A B2|Bc B2 A2|G6||

